X:1
T:Hosanna filio David
T:HOSANNA  FILIO  DAVID
T:Sammlung MUSICA SACRA, 1856 - No. 3
T:Nicolo JOMMELLI
T:© Edition Monika Feinen, Creative Commons Attribution-NonCommercial-ShareAlike 4.0
T:© Edition Monika Feinen, Creative Commons Attribution-NonCommercial-ShareAlike 4.0
C:Nicolo Jommelli
Z:© Edition Monika Feinen, Creative Commons Attribution-NonCommercial-ShareAlike 4.0
%%score [ 1 2 3 4 ]
L:1/8
M:4/4
K:C
V:1 treble nm="CANTO."
V:2 treble nm="ALTO."
V:3 treble-8 nm="TENORE."
V:4 bass nm="BASSO."
V:1
 z8 | z8 | z8 | A8 | _B4 A4 | d4 f2 e2 | d8- | d8- | d4 ^c2 B2 | ^c8 |"^SOLO." =c8 | d8 | _B4 B4- | %13
w: |||Ho-|san- na|fi- li- o|Da-|||vid.|Be-|ne-|dic- tus,|
 B2 d2 c2 _B2 | A8- | A2 _B2 G2 F2 | G8- | G4 A2 _B2 |{_B} A6 A2 | G4 A4- | A4 A4 | z4 A4 | A4 G4 | %23
w: _ _ _ qui|ve-|* * nit in|no-|* mi- ne|Do- mi-|ni, o|_ Rex,|Rex|Is- ra-|
 A4 z4 | z4"^TUTTI." A4 | d4 _B4 | z4 G4 | c4 A4 | z4 f2 e2 | d6 c2 | _B8 | A8- | A8- | A8- | A8 | %35
w: el.|Ho-|san- na,|Ho-|san- na,|in ex-|cel- *||||||
 A16 |] %36
w: sis.|
V:2
 z8 | z8 | D8 | F4 D4 | G4 F2 E2 | F2 G2 A4- | A4 G2 F2 | G4 ^G4 | A8 | A8 |"^SOLO." A8 | _B8 | %12
w: ||Ho-|san- na|fi- li- o|Da- * *||||vid.|Be-|ne-|
 G4 G4- | G2 _B2 A2 G2 | F8- | F8- | F2 G2 F2 E2 | E4 F2 G2 |{G} F6 F2 | E4 E4- | E4 F4 | z4 F4 | %22
w: dic- tus,|_ _ _ qui|ve-||* * nit in|no- mi- ne|Do- mi-|ni, o|_ Rex,|Rex|
 D6 D2 | ^C4"^TUTTI." E4 | A4 F4 | z4 D4 | G4 E4 | z4 C4 | D2 C2 D2 E2 | F8 | G2 A2 G2 F2 | E4 F4 | %32
w: Is- ra-|el. Ho-|san- na,|Ho-|san- na,|Ho-|san- na in ex-|cel-|||
 G4 F4 | E8- | E8 | F16 |] %36
w: |||sis.|
V:3
 z8 | A8 | _B4 A4 | d4 f2 e2 | d8- | d6 e2 | f8 | d8 | e8 | e8 |"^SOLO." f8 | f8- | f2 g2 e2 d2 | %13
w: |Ho-|san- na|fi- li- o|Da-|||||vid.|Be-||* ne- * *|
 c8- | c2 d2 _B2 A2 | _B4 B4- | B4 =B4 | c4 c2 c2 | c4 =B4 | c4 ^c4- | c4 d4 | z4 d4 | _B6 B2 | %23
w: dic-|* tus, _ qui|ve- nit|_ in|no- mi- ne|Do- mi-|ni, o|_ Rex,|Rex|Is- ra-|
 A4 z4 | z4"^TUTTI." d4 | _B4 G4 | z4 c4 | A4 F4 | z4 A4 | _B2 A2 B2 c2 | d8 | ^c4 d4 | e4 d4- | %33
w: el.|Ho-|san- na,|Ho|san- na,|Ho-|san- na in ex-|cel-|||
 d4 ^c2 B2 | ^c8 | d16 |] %36
w: ||sis.|
V:4
 D,8 | F,4 D,4 | G,4 F,2 E,2 | D,8- | D,2 E,2 F,2 G,2 | F,2 E,2 D,2 C,2 | _B,,8 | B,,8 | A,,8 | %9
w: Ho-|san- na|fi- li- o|Da-||||||
 A,,8 | z8 | z8 | z8 | z8 | z8 | z8 | z8 | z8 | z8 | z8 | z8 | z8 | z8 | z4"^TUTTI." A,4 | %24
w: vid.||||||||||||||Ho-|
 F,4 D,4 | z4 G,4 | _B,4 G,4 | z4 F,2 E,2 | D,6 C,2 | _B,,6 A,,2 | G,,4 G,4 | A,8- | A,8- | A,8- | %34
w: san- na,|Ho-|san- na,|in ex-|cel- *||||||
 A,8 | D,16 |] %36
w: |sis.|

